mobile/24/svg/themes-24.svg

<svg width="24" height="24" fill="none" xmlns="http://www.w3.org/2000/svg"><path fill-rule="evenodd" clip-rule="evenodd" d="M18 10V3.5c0-.28-.22-.5-.5-.5h-11c-.28 0-.5.22-.5.5V10H5c-.28 0-.5.22-.5.5v3A2.5 2.5 0 0 0 7 16h3v4.5c0 .83.67 1.5 1.5 1.5h1c.83 0 1.5-.67 1.5-1.5V16h3a2.5 2.5 0 0 0 2.5-2.5v-3c0-.28-.22-.5-.5-.5h-1zM7.75 10h8.51V5.37h-.57l-1.22 1.14c-.37.35-.94.34-1.3-.02l-1.12-1.12h-.83l-.77.64c-.39.33-.96.28-1.3-.09L8.09 4.75h-.34V10z" fill="#000"/></svg>

<svg width="24" height="24" viewBox="0 0 24 24" fill="none" xmlns="http://www.w3.org/2000/svg">
<path fill-rule="evenodd" clip-rule="evenodd" d="M18 10V3.5C18 3.22 17.78 3 17.5 3H6.5C6.22 3 6 3.22 6 3.5V10H5C4.72 10 4.5 10.22 4.5 10.5V13.5C4.5 14.88 5.62 16 7 16H10V20.5C10 21.33 10.67 22 11.5 22H12.5C13.33 22 14 21.33 14 20.5V16H17C18.38 16 19.5 14.88 19.5 13.5V10.5C19.5 10.22 19.28 10 19 10H18ZM7.75 10H16.26V5.37H15.69L14.47 6.51C14.1 6.86 13.53 6.85 13.17 6.49L12.05 5.37H11.22L10.45 6.01C10.06 6.34 9.49 6.29 9.15 5.92L8.09 4.75H7.75V10Z" fill="black"/>
</svg>
